img/svg/icon_delivery.svg

<svg width="40" height="40" fill="none" xmlns="http://www.w3.org/2000/svg"><path fill-rule="evenodd" clip-rule="evenodd" d="M36 22h-8v-8h6a2 2 0 012 2v6zm0 8h-1.558c-1.098-1.22-2.672-2-4.442-2-.706 0-1.372.144-2 .368V26h8v4zm-6 6c-1.102 0-2-.898-2-2 0-1.102.898-2 2-2 1.102 0 2 .898 2 2 0 1.102-.898 2-2 2zm-6-26v20h-5.032c-.892-3.444-3.994-6-7.718-6a7.92 7.92 0 00-5.574 2.284c-.624.612-1.676.148-1.676-.726V6a2 2 0 012-2h16a2 2 0 012 2v4zm-9.306 24c-.694 1.19-1.97 2-3.444 2s-2.75-.81-3.444-2a3.956 3.956 0 01-.556-2c0-.732.212-1.41.556-2 .694-1.19 1.97-2 3.444-2s2.75.81 3.444 2c.344.59.556 1.268.556 2s-.212 1.41-.556 2zM36 10h-8V4c0-2.21-1.79-4-4-4H4C1.79 0 0 1.79 0 4v26.468A3.533 3.533 0 003.532 34c.894 3.444 3.994 6 7.718 6 3.724 0 6.824-2.556 7.718-6H24a6 6 0 1012 0c2.21 0 4-1.79 4-4V14c0-2.21-1.79-4-4-4z" fill="#A5FF14"/></svg>

<svg width="40" height="40" viewBox="0 0 40 40" fill="none" xmlns="http://www.w3.org/2000/svg">
<path id="truck_round [#653] copy 2" fill-rule="evenodd" clip-rule="evenodd" d="M36 22H28V14H34C35.104 14 36 14.896 36 16V22ZM36 30H34.442C33.344 28.78 31.77 28 30 28C29.294 28 28.628 28.144 28 28.368V26H36V30ZM30 36C28.898 36 28 35.102 28 34C28 32.898 28.898 32 30 32C31.102 32 32 32.898 32 34C32 35.102 31.102 36 30 36ZM24 10V30H18.968C18.076 26.556 14.974 24 11.25 24C9.076 24 7.112 24.872 5.676 26.284C5.052 26.896 4 26.432 4 25.558V6C4 4.896 4.896 4 6 4H22C23.104 4 24 4.896 24 6V10ZM14.694 34C14 35.19 12.724 36 11.25 36C9.776 36 8.5 35.19 7.806 34C7.462 33.41 7.25 32.732 7.25 32C7.25 31.268 7.462 30.59 7.806 30C8.5 28.81 9.776 28 11.25 28C12.724 28 14 28.81 14.694 30C15.038 30.59 15.25 31.268 15.25 32C15.25 32.732 15.038 33.41 14.694 34ZM36 10H28V4C28 1.79 26.21 0 24 0H4C1.79 0 0 1.79 0 4V30.468C0 32.418 1.582 34 3.532 34C4.426 37.444 7.526 40 11.25 40C14.974 40 18.074 37.444 18.968 34H24C24 37.314 26.686 40 30 40C33.314 40 36 37.314 36 34C38.21 34 40 32.21 40 30V14C40 11.79 38.21 10 36 10Z" fill="#A5FF14"/>
</svg>
